src/images/trading_app/header/portfolio/ic-portfolio-normal-light.svg

<?xml version="1.0" encoding="UTF-8"?>
<svg width="16px" height="16px" viewBox="0 0 16 16" version="1.1" xmlns="http://www.w3.org/2000/svg" xmlns:xlink="http://www.w3.org/1999/xlink">
    <!-- Generator: Sketch 49 (51002) - http://www.bohemiancoding.com/sketch -->
    <title>icons/system/header/portfolio/ic-portfolio-normal-light</title>
    <desc>Created with Sketch.</desc>
    <defs></defs>
    <g id="icons/system/header/portfolio/ic-portfolio-normal-light" stroke="none" stroke-width="1" fill="none" fill-rule="evenodd">
        <g id="icons/normal/portfolio" transform="translate(0.000000, 1.000000)">
            <g id="rec-portfolio-body" transform="translate(0.000000, 2.000000)">
                <path d="M1,1 L1,11 L15,11 L15,1 L1,1 Z M1,0 L15,0 C15.5522847,0 16,0.44771525 16,1 L16,11 C16,11.5522847 15.5522847,12 15,12 L1,12 C0.44771525,12 6.76353751e-17,11.5522847 0,11 L0,1 C-6.76353751e-17,0.44771525 0.44771525,0 1,0 Z" id="rec-portfolio-1" fill="#2A3052" fill-rule="nonzero"></path>
                <path d="M3.15138782,7.5 L12.8486122,7.5 L15.2773501,5.88084139 C15.4164494,5.7881085 15.5,5.63199284 15.5,5.46481624 L15.5,1 C15.5,0.723857625 15.2761424,0.5 15,0.5 L1,0.5 C0.723857625,0.5 0.5,0.723857625 0.5,1 L0.5,5.46481624 C0.5,5.63199284 0.583550568,5.7881085 0.722649902,5.88084139 L3.15138782,7.5 Z" id="Rectangle" stroke="#2A3052"></path>
                <rect id="Rectangle-2" fill="#2A3052" x="6" y="5" width="4" height="1" rx="0.5"></rect>
            </g>
            <path d="M5.5,2.5 L10.5,2.5 L10.5,1 C10.5,0.723857625 10.2761424,0.5 10,0.5 L6,0.5 C5.72385763,0.5 5.5,0.723857625 5.5,1 L5.5,2.5 Z" id="rec-portfolio-holder" stroke="#2A3052"></path>
        </g>
    </g>
</svg>

<svg width="16" height="16" viewBox="0 0 16 16" xmlns="http://www.w3.org/2000/svg"><title>icons/system/header/portfolio/ic-portfolio-normal-light</title><g fill="none" fill-rule="evenodd"><g transform="translate(0 3)"><path d="M1 1v10h14V1H1zm0-1h14a1 1 0 0 1 1 1v10a1 1 0 0 1-1 1H1a1 1 0 0 1-1-1V1a1 1 0 0 1 1-1z" fill="#2A3052" fill-rule="nonzero"/><path d="M3.151 7.5h9.698l2.428-1.62a.5.5 0 0 0 .223-.415V1a.5.5 0 0 0-.5-.5H1a.5.5 0 0 0-.5.5v4.465a.5.5 0 0 0 .223.416L3.15 7.5z" stroke="#2A3052"/><rect fill="#2A3052" x="6" y="5" width="4" height="1" rx=".5"/></g><path d="M5.5 3.5h5V2a.5.5 0 0 0-.5-.5H6a.5.5 0 0 0-.5.5v1.5z" stroke="#2A3052"/></g></svg>
